packages/ckeditor5-icons/theme/icons/line-height.svg

<svg width="20" height="20" viewBox="0 0 20 20" fill="none" xmlns="http://www.w3.org/2000/svg">
<path d="M17.975 15.279L18.754 14.5L19.461 15.207L17.196 17.472L15.003 15.207L15.71 14.5L16.475 15.265V4.825C16.475 4.783 16.475 4.742 16.477 4.702L15.707 5.472L15 4.765L17.196 2.5L19.461 4.765L18.754 5.472L17.972 4.69C17.974 4.733 17.975 4.779 17.975 4.825V15.279Z" fill="#333333"/>
<path d="M1 15.75C1 16.164 1.273 16.5 1.60938 16.5H9.67669C9.8383 16.5 9.9933 16.421 10.1076 16.2803C10.2219 16.1397 10.2861 15.9489 10.2861 15.75C10.2861 15.5511 10.2219 15.3603 10.1076 15.2197C9.9933 15.079 9.8383 15 9.67669 15H1.60938C1.44776 15 1.29276 15.079 1.17848 15.2197C1.0642 15.3603 1 15.5511 1 15.75Z" fill="#333333"/>
<path d="M1 3.75C1 4.164 1.273 4.5 1.60938 4.5H13.3906C13.5522 4.5 13.7072 4.42098 13.8215 4.28033C13.9358 4.13968 14 3.94891 14 3.75C14 3.55109 13.9358 3.36032 13.8215 3.21967C13.7072 3.07902 13.5522 3 13.3906 3H1.60938C1.44776 3 1.29276 3.07902 1.17848 3.21967C1.0642 3.36032 1 3.55109 1 3.75Z" fill="#333333"/>
<path d="M1 7.75C1 8.164 1.273 8.5 1.60938 8.5H13.3906C13.5522 8.5 13.7072 8.42098 13.8215 8.28033C13.9358 8.13968 14 7.94891 14 7.75C14 7.55109 13.9358 7.36032 13.8215 7.21967C13.7072 7.07902 13.5522 7 13.3906 7H1.60938C1.44776 7 1.29276 7.07902 1.17848 7.21967C1.0642 7.36032 1 7.55109 1 7.75Z" fill="#333333"/>
<path d="M1 11.75C1 12.164 1.273 12.5 1.60938 12.5H13.3906C13.5522 12.5 13.7072 12.421 13.8215 12.2803C13.9358 12.1397 14 11.9489 14 11.75C14 11.5511 13.9358 11.3603 13.8215 11.2197C13.7072 11.079 13.5522 11 13.3906 11H1.60938C1.44776 11 1.29276 11.079 1.17848 11.2197C1.0642 11.3603 1 11.5511 1 11.75Z" fill="#333333"/>
</svg>

<svg xmlns="http://www.w3.org/2000/svg" width="20" height="20" fill="none" viewBox="0 0 20 20"><path fill="#333" d="m17.975 15.279.779-.779.707.707-2.265 2.265-2.193-2.265.707-.707.765.765V4.825q0-.063.002-.123l-.77.77L15 4.765 17.196 2.5l2.265 2.265-.707.707-.782-.782q.003.065.003.135zM1 15.75c0 .414.273.75.61.75h8.067a.56.56 0 0 0 .43-.22.85.85 0 0 0 .18-.53.85.85 0 0 0-.18-.53.56.56 0 0 0-.43-.22H1.609a.56.56 0 0 0-.43.22.85.85 0 0 0-.179.53M1 3.75c0 .414.273.75.61.75h11.78a.56.56 0 0 0 .431-.22.85.85 0 0 0 .179-.53.85.85 0 0 0-.178-.53.56.56 0 0 0-.431-.22H1.609a.56.56 0 0 0-.43.22.85.85 0 0 0-.179.53M1 7.75c0 .414.273.75.61.75h11.78a.56.56 0 0 0 .431-.22.85.85 0 0 0 .179-.53.85.85 0 0 0-.178-.53.56.56 0 0 0-.431-.22H1.609a.56.56 0 0 0-.43.22.85.85 0 0 0-.179.53M1 11.75c0 .414.273.75.61.75h11.78a.56.56 0 0 0 .431-.22.85.85 0 0 0 .179-.53.85.85 0 0 0-.178-.53.56.56 0 0 0-.431-.22H1.609a.56.56 0 0 0-.43.22.85.85 0 0 0-.179.53"/></svg>
